X:1
T:Title
%%score 1 ( 2 3 )
L:1/8
Q:1/4=100
M:4/4
K:Eb
V:1 treble nm="Strings 1, Treble"
V:2 bass nm="Strings 1, Bass"
V:3 bass 
V:1
 z4 z2 EG | [GB]2 [AB]2 B2 [AB]2 | [Ge]4 [GB]2 [EG]2 | E3 E [DF]2 E[DF] | [EG]6 EG | %5
w: |||||
 [GB]2 [AB]2 B2 [AB]2 | [Ge]4 [GB]2 [EG]2 | [EB]3 [FA] [EG]2 [DF]2 | [B,E]6 z2 | %9
w: ||||
 z2 [FB]2 [FB]2 [DB]2 | [EB]3 [DA] [EG]2 [EB]2 | z2 [DB]2 [DA]2 [DF]2 | E3 [DF] [EG]2 EG | %13
w: He~ came~ and~|sought~ * her~ To~|His~ ho ly~|bride;~ * * * *|
 [GB]2 [AB]2 B2 [AB]2 | [Ge]4 [GB]2 [EG]2 | [EB]3 [FA] [EG]2 [DF]2 | [B,E]6 z2 |] %17
w: ||||
V:2
 z4 z2 G,B, | [E,E]2 [F,D]2 [G,E]2 [F,D]2 | [E,B,]4 [E,E]2 [E,B,]2 | %3
w: 1.~The~ *|church~ has~ one~ foun|da tion,~ 'Tis~|
 [C,=A,]3 [C,A,] [B,,B,]2 [B,,B,]2 | [E,B,]6 G,B, | [E,E]2 [F,D]2 [G,E]2 [F,D]2 | %6
w: Je sus~ Christ~ her~|Lord;~ She~ *|is~ His~ new~ cre|
 [E,B,]4 [E,E]2 [E,B,]2 | [G,B,]3 [F,C] B,2 [B,,A,]2 | [E,G,]6 G,2 | F,2 [B,,D]2 [B,,D]2 [A,B,]2 | %10
w: a tion,~ Through~|wa ter~ by~ the~|word.~ *|* From~ heav'n~ He~|
 [G,B,]3 [F,B,] [E,B,]2 [G,B,]2 | F,2 [B,,F,]2 [B,,B,]2 [A,B,]2 | [G,B,]3 [F,B,] [E,B,]2 G,B, | %13
w: came~ and~ sought~ her~|* To~ be~ His~|ho ly~ bride;~ With~ *|
 [E,E]2 [F,D]2 [G,E]2 [F,D]2 | [E,B,]4 [E,E]2 [E,B,]2 | [G,B,]3 [F,C] B,2 [B,,A,]2 | [E,G,]6 z2 |] %17
w: His~ own~ blood~ He~|bought~ her,~ And~|for~ her~ life~ He~|died.~|
V:3
 z4 z2 E,2 | x8 | x8 | x8 | z4 z2 E,2 | x8 | x8 | x8 | x8 | x8 | x8 | x8 | z4 z2 E,2 | x8 | x8 | %15
 x8 | x8 |] %17

